logos/tapcart.svg

<?xml version="1.0" encoding="UTF-8"?>
<svg width="512px" height="117px" viewBox="0 0 512 117" version="1.1" xmlns="http://www.w3.org/2000/svg" preserveAspectRatio="xMidYMid">
    <title>Tapcart</title>
    <g>
        <path d="M125.28544,42.8251784 L88.904305,6.44421177 C86.8712485,4.40175795 84.4545519,2.7810623 81.7933228,1.67517523 C79.1320936,0.569288153 76.2785391,0 73.3966917,0 C70.5148442,0 67.6612897,0.569288153 65.0000606,1.67517523 C62.3388314,2.7810623 59.9221348,4.40175795 57.8890783,6.44421177 L41.699064,22.7117625 C50.1627227,24.0618117 57.8678586,28.3851892 63.4304709,34.905487 C68.9930832,41.4256837 72.0487307,49.7155423 72.0487307,58.2863103 C72.0487307,66.8570782 68.9930832,75.1469368 63.4304709,81.6671336 C57.8678586,88.1876671 50.1627227,92.5107752 41.699064,93.8610938 L57.9665474,110.144071 C59.9996039,112.186558 62.4163004,113.807008 65.0775296,114.913131 C67.7387588,116.018917 70.5923132,116.588146 73.4741607,116.588146 C76.3560081,116.588146 79.2095626,116.018917 81.8707918,114.913131 C84.532021,113.807008 86.9487175,112.186558 88.981774,110.144071 L125.28544,73.7474422 C129.381867,69.6449524 131.683034,64.0840242 131.683034,58.2863103 C131.683034,52.4885963 129.381867,46.9280049 125.28544,42.8251784 Z M41.2025887,23.2078 L41.6987272,22.7115267 C36.5531003,21.8907593 31.2906299,22.1960209 26.2744099,23.6062939 C21.2581563,25.0166005 16.6075564,27.49827 12.6434331,30.8801968 C8.67930972,34.2621573 5.4960404,38.4636726 3.31321608,43.1953455 C1.13040188,47.9266816 -3.82922073e-13,53.0753399 -3.82922073e-13,58.2863103 C-3.82922073e-13,63.4969438 1.13040188,68.6456021 3.31321608,73.3769382 C5.4960404,78.1086111 8.67930972,82.3101264 12.6434331,85.6921543 C16.6075564,89.0738453 21.2581563,91.5555485 26.2744099,92.9658214 C31.2906299,94.3760944 36.5531003,94.6815918 41.6987272,93.860757 L41.2025887,93.3646185 C31.9031741,84.0589053 26.6793708,71.4418968 26.6793708,58.2863103 C26.6793708,45.1303869 31.9031741,32.5132437 41.2025887,23.2078 Z" fill="#1B191B"></path>
        <path d="M238.351472,39.5371238 L250.153035,39.5371238 L250.153035,86.5406085 L238.351472,86.5406085 L238.351472,80.787355 C236.062768,83.1003104 233.324069,84.919485 230.304799,86.1330541 C227.285528,87.3466231 224.049681,87.9286512 220.796992,87.8434352 C214.56882,87.8777911 208.553856,85.5759508 203.940071,81.392287 C198.977675,77.1274491 196.496309,70.9710199 196.496309,63.046613 C196.496309,55.1222061 198.977675,49.0897274 203.940071,44.7009391 C208.549814,40.5108757 214.567473,38.2080249 220.796992,38.2497908 C224.046312,38.1807423 227.276097,38.7684964 230.292673,39.9783604 C233.309249,41.1882243 236.050642,42.9949366 238.351472,45.2903772 L238.351472,39.5371238 Z M223.479778,76.5228539 C227.377143,76.7498719 231.211523,75.4608548 234.179934,72.9249233 C235.519474,71.6739671 236.575074,70.150522 237.275663,68.4573187 C237.976589,66.7641154 238.306338,64.9402253 238.243015,63.1085882 C238.318463,61.2665097 237.994441,59.4298203 237.293178,57.7244915 C236.591915,56.0194994 235.529916,54.4862865 234.179934,53.230278 C231.115866,50.8486109 227.345145,49.5555519 223.464284,49.5555519 C219.583087,49.5555519 215.812703,50.8486109 212.748298,53.230278 C211.369687,54.4549621 210.281415,55.9713339 209.562301,57.6692527 C208.843523,59.3675083 208.51209,61.2045345 208.592254,63.046613 C208.513438,64.899133 208.846554,66.7462639 209.568027,68.4546241 C210.289499,70.1629844 211.381138,71.6897977 212.763792,72.9249233 C215.736245,75.4645598 219.577024,76.7539137 223.479778,76.5228539 Z M304.879507,44.7009391 C309.74894,49.0587397 312.229969,55.1996751 312.229969,63.046613 C312.229969,70.8932141 309.74894,77.1274491 304.879507,81.3919501 C300.221261,85.5638252 294.18272,87.8619604 287.929623,87.8434352 C284.698491,87.9427977 281.481169,87.3776107 278.477392,86.18223 C275.473615,84.9871862 272.747716,83.1878841 270.467769,80.8958116 L270.467769,103.056329 L258.666543,103.056329 L258.666543,39.4748117 L270.467769,39.4748117 L270.467769,45.1196086 C272.753779,42.8369671 275.481362,41.0450751 278.483791,39.8530626 C281.486558,38.6610502 284.700512,38.0945159 287.929623,38.1878156 C294.192151,38.1800687 300.233724,40.5014446 304.879507,44.7009391 Z M285.246837,76.5225171 C289.199778,76.7330308 293.083333,75.4234675 296.102267,72.8629481 C297.444502,71.6143496 298.502459,70.0915782 299.203722,68.3973644 C299.904649,66.7034875 300.232713,64.8785869 300.165012,63.046613 C300.235744,61.2139655 299.909027,59.3880544 299.207764,57.6938407 C298.506501,55.9992901 297.447197,54.4765187 296.102267,53.230278 C293.085691,50.6636957 289.201799,49.3487433 285.246837,49.5548783 C281.322863,49.3366177 277.468611,50.6549383 274.499863,53.230278 C273.158302,54.4792133 272.101018,56.0023215 271.399755,57.6961984 C270.698829,59.3897385 270.370428,61.2146391 270.436781,63.046613 C270.364365,64.8883547 270.690071,66.7240336 271.390998,68.4286888 C272.092261,70.1333441 273.152576,71.6668938 274.499863,72.9249233 C277.480399,75.4719699 281.333641,76.7619974 285.246837,76.5225171 Z M326.512899,81.8890991 C323.621283,79.6711275 321.301591,76.7939955 319.747832,73.4975204 C318.194073,70.2007084 317.450708,66.5805475 317.580384,62.9384932 C317.476643,59.3270897 318.221019,55.7412846 319.753222,52.4690606 C321.285761,49.1971735 323.563687,46.3294726 326.404442,44.0966807 C331.685134,40.2730794 338.045004,38.2258764 344.562506,38.2502455 C352.784327,38.2502455 361.204872,41.5378454 366.274041,47.725599 C366.274041,47.803068 357.637929,56.3788883 357.637929,56.3633945 C356.219909,54.2073981 354.273079,52.4501986 351.986059,51.258523 C349.699039,50.0668474 347.142561,49.4807775 344.562506,49.5555519 C340.833889,49.5174911 337.199581,50.7418384 334.251043,53.0291953 C332.722546,54.1929147 331.504935,55.7163598 330.706667,57.4641282 C329.908736,59.2118966 329.554736,61.1297601 329.676329,63.0472867 C329.557431,64.9641396 329.912778,66.8813294 330.710372,68.6284242 C331.508303,70.3758558 332.724567,71.8996377 334.251043,73.0650412 C337.199581,75.347009 340.833889,76.5656303 344.562506,76.5231908 C349.820295,76.5231908 355.263335,74.0576551 357.745712,69.5913978 L366.381824,78.2291933 L366.290882,78.3531437 C364.010598,81.1821102 361.07688,83.4165861 357.745712,84.866604 C353.626381,86.8225283 349.123074,87.8393934 344.562506,87.8439372 C338.061845,87.8653287 331.726563,85.7756861 326.512899,81.8890991 Z M411.24649,39.5371238 L423.048726,39.5371238 L423.048726,86.5406085 L411.24649,86.5406085 L411.24649,80.787355 C408.956101,83.0986263 406.21774,84.9171273 403.199816,86.1303595 C400.178525,87.3439285 396.945035,87.9269671 393.691336,87.8434352 C387.470238,87.874086 381.461336,85.5722457 376.850246,81.392287 C371.88886,77.1274491 369.406483,70.9710199 369.406483,63.046613 C369.406483,55.1222061 371.88886,49.0897274 376.850246,44.7009391 C381.461336,40.5108757 387.476974,38.2080249 393.708178,38.2497908 C396.95514,38.1807423 400.185261,38.7684964 403.203185,39.9783604 C406.221108,41.1882243 408.959469,42.9949366 411.263331,45.2903772 L411.24649,39.5371238 Z M396.375806,76.5228539 C400.279571,76.7377463 404.11934,75.4254885 407.073267,72.8629481 C408.420555,71.6153601 409.478175,70.0929254 410.182133,68.3990485 C410.88609,66.7051716 411.216176,64.8795973 411.15218,63.046613 C411.219544,61.2132919 410.892827,59.3867071 410.188869,57.6924934 C409.484912,55.9982797 408.420555,54.4761819 407.073267,53.230278 C404.014925,50.8472636 400.245889,49.553531 396.365702,49.553531 C392.488883,49.553531 388.719846,50.8472636 385.658136,53.230278 C384.283903,54.4590039 383.199337,55.9760494 382.481906,57.6732946 C381.764476,59.3702029 381.427654,61.2052081 381.501755,63.046613 C381.420918,64.8981225 381.751003,66.7445798 382.471802,68.4526032 C383.189232,70.1606266 384.277167,71.6881136 385.658136,72.9249233 C388.632273,75.4645598 392.472042,76.7539137 396.375806,76.5228539 Z M443.36245,46.7791297 C448.620239,41.118839 455.36678,39.4128365 463.39998,39.4128365 L463.39998,50.5165046 C454.669558,50.5165046 443.36245,54.1140984 443.36245,65.3262231 L443.36245,86.5406085 L431.560213,86.5406085 L431.560213,39.5371238 L443.36245,39.5371238 L443.36245,46.7791297 Z M187.470831,72.9252601 C187.133673,74.0421613 186.422642,75.0095135 185.456974,75.664632 C184.491305,76.3194136 183.329944,76.6225532 182.167235,76.5231908 C178.709085,76.5231908 176.522438,74.2435807 176.522438,70.1804991 L176.522438,50.8422113 L191.595888,50.8422113 L191.595888,39.5371238 L176.522438,39.5371238 L176.522438,23.6729172 L164.721212,30.7134026 L164.721212,39.5371238 L153.043936,39.5371238 L153.043936,50.8422113 L164.643406,50.8422113 L164.643406,71.7622144 C164.557853,73.9451566 164.958671,76.1196782 165.816893,78.1284836 C166.675115,80.1376257 167.969522,81.9305282 169.606139,83.3775148 C173.044079,86.4163212 177.519767,88.0152144 182.10526,87.8437721 C184.681947,87.9074314 187.240782,87.3995041 189.597524,86.3567037 C191.954603,85.3135666 194.050982,83.7611548 195.736439,81.8112933 L195.969183,81.5475618 C195.969183,81.5475618 187.486325,72.9252601 187.470831,72.9252601 Z M503.45483,72.9252601 C503.124745,74.0424981 502.417419,75.0111976 501.450741,75.6666529 C500.48743,76.322445 499.328763,76.624911 498.166728,76.5231908 C494.694095,76.5231908 492.508121,74.2435807 492.508121,70.1804991 L492.508121,50.8422113 L507.580898,50.8422113 L507.580898,39.5371238 L492.508121,39.5371238 L492.508121,23.6729172 L492.430652,23.6729172 L480.628416,30.7134026 L480.628416,39.5371238 L469.028272,39.5371238 L469.028272,50.8422113 L480.628416,50.8422113 L480.628416,71.7622144 C480.540842,73.9451566 480.94166,76.1196782 481.800556,78.1284836 C482.659451,80.1376257 483.952847,81.9305282 485.589801,83.3775148 C489.028752,86.4163212 493.505114,88.0152144 498.089259,87.8437721 L498.166728,87.8437721 C500.740047,87.9030527 503.289788,87.3927677 505.640804,86.3499673 C507.995189,85.3068301 510.083484,83.7571129 511.767593,81.8112933 L512,81.5475618 C512,81.5475618 503.485144,72.9252601 503.45483,72.9252601 Z" fill="#1B191B"></path>
    </g>
</svg>

<svg preserveAspectRatio="xMidYMid" viewBox="0 0 512 117" xmlns="http://www.w3.org/2000/svg">
  <g fill="#1B191B">
    <path d="m125.285 42.825-36.38-36.38a21.88 21.88 0 0 0-31.016 0L41.7 22.711a36.024 36.024 0 0 1 0 71.15l16.268 16.282a21.884 21.884 0 0 0 31.015 0l36.303-36.397a21.882 21.882 0 0 0 0-30.922ZM41.203 23.208l.496-.496a36.024 36.024 0 1 0 0 71.149l-.496-.496a49.625 49.625 0 0 1 0-70.157Z"/>
    <path d="M238.351 39.537h11.802v47.004h-11.802v-5.754a23.815 23.815 0 0 1-17.554 7.056 24.89 24.89 0 0 1-16.857-6.45c-4.962-4.266-7.444-10.422-7.444-18.346 0-7.925 2.482-13.957 7.444-18.346a24.815 24.815 0 0 1 16.857-6.451 24.131 24.131 0 0 1 17.554 7.04v-5.753ZM223.48 76.523a15.12 15.12 0 0 0 10.7-3.598 12.819 12.819 0 0 0 4.063-9.816 12.781 12.781 0 0 0-4.063-9.879 17.461 17.461 0 0 0-21.432 0 12.412 12.412 0 0 0-4.156 9.817 12.531 12.531 0 0 0 4.172 9.878 15.121 15.121 0 0 0 10.716 3.598Zm81.4-31.822c4.869 4.358 7.35 10.499 7.35 18.346 0 7.846-2.481 14.08-7.35 18.345a25.294 25.294 0 0 1-16.95 6.451 23.602 23.602 0 0 1-17.462-6.947v22.16h-11.801V39.475h11.8v5.645a23.744 23.744 0 0 1 17.463-6.932 25.23 25.23 0 0 1 16.95 6.513Zm-19.633 31.822a15.508 15.508 0 0 0 10.855-3.66 12.768 12.768 0 0 0 4.063-9.816 12.714 12.714 0 0 0-4.063-9.817 15.506 15.506 0 0 0-10.855-3.675A15.119 15.119 0 0 0 274.5 53.23a12.781 12.781 0 0 0-4.063 9.817 12.828 12.828 0 0 0 4.063 9.878 15.12 15.12 0 0 0 10.747 3.598Zm41.266 5.366a22.86 22.86 0 0 1-8.933-18.95 23.124 23.124 0 0 1 8.824-18.842 30.769 30.769 0 0 1 18.159-5.847c8.221 0 16.642 3.288 21.711 9.476 0 .077-8.636 8.653-8.636 8.637a15.119 15.119 0 0 0-13.075-6.808 16.55 16.55 0 0 0-10.312 3.474 11.665 11.665 0 0 0-4.575 10.018 11.697 11.697 0 0 0 4.575 10.018 16.541 16.541 0 0 0 10.312 3.458c5.257 0 10.7-2.465 13.183-6.932l8.636 8.638-.091.124a22.52 22.52 0 0 1-8.545 6.514 30.809 30.809 0 0 1-13.183 2.977 30.038 30.038 0 0 1-18.05-5.955Zm84.733-42.352h11.803v47.004h-11.803v-5.754a23.857 23.857 0 0 1-17.555 7.056 24.895 24.895 0 0 1-16.84-6.45c-4.962-4.266-7.445-10.422-7.445-18.346 0-7.925 2.483-13.957 7.444-18.346a24.817 24.817 0 0 1 16.858-6.451 24.14 24.14 0 0 1 17.555 7.04l-.017-5.753Zm-14.87 36.986a15.067 15.067 0 0 0 10.697-3.66 12.784 12.784 0 0 0 4.079-9.816c.068-1.834-.26-3.66-.963-5.355a12.738 12.738 0 0 0-3.116-4.462 17.436 17.436 0 0 0-21.415 0 12.51 12.51 0 0 0-4.156 9.816 12.5 12.5 0 0 0 .97 5.407 12.503 12.503 0 0 0 3.186 4.472 15.126 15.126 0 0 0 10.718 3.598Zm46.986-29.744c5.258-5.66 12.005-7.366 20.038-7.366v11.104c-8.73 0-20.038 3.597-20.038 14.81V86.54H431.56V39.537h11.802v7.242ZM187.471 72.925a5.087 5.087 0 0 1-5.304 3.598c-3.458 0-5.645-2.28-5.645-6.343V50.842h15.074V39.537h-15.074V23.673l-11.8 7.04v8.824h-11.678v11.305h11.6v20.92a14.735 14.735 0 0 0 4.962 11.616 17.865 17.865 0 0 0 12.5 4.466 17.451 17.451 0 0 0 13.63-6.033l.233-.263s-8.483-8.623-8.498-8.623Zm315.984 0a5.035 5.035 0 0 1-2.004 2.742 5.05 5.05 0 0 1-3.284.856c-3.473 0-5.659-2.28-5.659-6.343V50.842h15.073V39.537h-15.073V23.673h-.077l-11.803 7.04v8.824h-11.6v11.305h11.6v20.92a14.734 14.734 0 0 0 4.961 11.615 17.87 17.87 0 0 0 12.5 4.467h.078a17.447 17.447 0 0 0 13.6-6.032l.233-.264s-8.515-8.623-8.545-8.623Z"/>
  </g>
</svg>
